X:1
T:Sångarhälsning
T:Sångarhälsning
T:Felix Körling
C:Felix Körling
%%score [ 1 2 3 4 ]
L:1/8
Q:1/4=84
M:3/4
K:A
V:1 treble-8 nm="T1"
V:2 treble-8 nm="T2"
V:3 bass nm="B1"
V:4 bass nm="B2"
V:1
"^Eldigt"!f! A3/2 B/ | !>!c3 A (3(GA) B | A2 E2 A3/2 B/ |!<(! c3 e!<)! g3/2 f/ | %4
w: Låt vår|häls- nings sång _ nu|klin- ga, vä- xa|fram med lust och|
!>(! e4!>)! e3/2 B/ | !>!c3 A (3(GA) B | A2 F2 A3/2 c/ |!<(! B c ^d e!<)! [dg]3/2 [df]/ | %8
w: fröjd, hvar- je|ton sig kraf- * tigt|svin- ga, svin- ga|jub- lan- de mot him- lens|
 e4!p! e3/2 e/ | e3 e =c3/2 d/ | e2 =c2 A3/2 A/ | =f3 f!<(! d3/2 e/!<)! |!>(! =f4!>)! e3/2 d/ | %13
w: höjd. Sån- gen|är den makt oss|e- nar, bin- der|oss med star- ka|band, sån- gen|
 =c3!<(! =G e3/2 d/!<)! |!>(! =g2 =c2!>)!!<(! c3/2 c/!<)! |!mf! _a3 a a a | =g4 =c3/2 c/ | %17
w: håg och sin- ne|re- nar, då vi|van- dra hand i|hand i dess|
"^dim. e poco rit." d4 d2 | ^d4 d2 |!<(! e6-!<)! |!>(! e2 z2!>)!!f!"^a tempo" A3/2 B/ | %21
w: fag- ra|lju- sa|land.|_ Där- för|
 c3 A (3(GA) B | A2 E2 A3/2 B/ |!<(! c3 e!<)! g3/2 f/ | e4 E3/2 E/ | !>!c3 G!<(! (3(Ac) e!<)! | %26
w: må vår sång _ nu|klin- ga, vä- xa|fram med lust och|fröjd, hvar- je|ton sig kraf- * tigt|
 !>![ea]2 !>!d2 ^d3/2 d/ |!<(! (e2 f2) g2!<)! | a2 B2!ff! d2 | !>!c3 !>!d !>!e !>!=f | %30
w: svin- ga, hvar- je|ton _ sig|svin- ga med|ju- bel upp mot|
!<(! !>!^f4 !>!e2!<)! | !fermata!a4 |] %32
w: him- lens|höjd.|
V:2
!f! A3/2 G/ | !>!A3 E (3:2:2=F2 F | E2 E2 A3/2 B/ |!<(! c3 c!<)! d3/2 d/ |!>(! d4!>)! B3/2 B/ | %5
w: Låt vår|häls- nings sång nu|klin- ga, vä- xa|fram med lust och|fröjd, hvar- je|
 !>!c3 A (3(GA) B | A2 F2 z2 |!<(! B4!<)! B3/2 B/ | B4!p! e3/2 e/ | =c3 c A3/2 B/ | %10
w: ton sig kraf- * tigt|svin- ga,|mot him- lens|höjd, Sån- gen|är den makt oss|
 =c2 c2 A3/2 A/ | d3 d!<(! d3/2 ^c/!<)! |!>(! d4!>)! B3/2 B/ | =c3!<(! =G B3/2 B/!<)! | %14
w: e- nar, bin- der|oss med star- ka|band, sån- gen|håg och sin- ne|
!>(! =c2 c2!>)!!<(! c3/2 c/!<)! |!mf! =c3 c c c | =c4 c3/2 c/ |"^dim. e poco rit." =c4 c2 | %18
w: re- nar, då vi|van- dra hand i|hand i dess|fag- ra|
 =c4 B2 |!<(! B6-!<)! |!>(! B2 z2!>)!!f!"^a tempo" A3/2 G/ | A3 A (3(GA) B | A2 E2 A3/2 B/ | %23
w: lju- sa|land.|_ Där- för|må vår sång _ nu|klin- ga, vä- xa|
!<(! c3 B!<)! e3/2 d/ | B4 E3/2 E/ | !>!c3 G!<(! (3(Ac) c!<)! | !>!c2 !>!d2 ^B3/2 B/ | %27
w: fram med lust och|fröjd, hvar- je|ton sig kraf- * tigt|svin- ga, hvar- je|
!<(! (c2 d2) ^e2!<)! | f2 A2!ff! A2 | !>!A3 !>!A !>!B !>!=c |!<(! (!>!^c2 d2) d2!<)! | %31
w: ton _ sig|svin- ga med|ju- bel upp mot|him- * lens|
 !fermata![ce]4 |] %32
w: höjd.|
V:3
!f! E,3/2 E,/ | !>!E,3 C, (3:2:2D,2 D, | C,2 C,2 z2 |!<(! A,3 A,!<)! A,3/2 A,/ | %4
w: Låt vår|häls- nings sång nu|klin- ga,|vä- xa fram med|
!>(! G, C (B,A,)!>)! G,3/2 G,/ | !>!A,3 F, (3:2:2^E,2 E, | F,2 F,2 z2 | %7
w: lust och fröjd, _ hvar- je|ton sig kraf- tigt|svin- ga,|
!<(! B, ^A, =A, G,!<)! A,3/2 A,/ | G,4 z2 |!p! =G,4 E,3/2 G,/ | =G,2 G,2 z2 | A,4!<(! A,2!<)! | %12
w: jub- lan- de mot him- lens|höjd.|Sån- gen oss|e- nar,|bin- der|
!>(! A,4!>)! =G,3/2 G,/ | =G,3/2 G,/ G,2!<(! G,2!<)! |!>(! =G,2 G,2!>)!!<(! G,3/2 G,/!<)! | %15
w: band, sån- gen|håg och sin- ne|re- nar, då vi|
!mf! _G,3 G, G, G, | =G,4 G,3/2 G,/ |"^dim. e poco rit." A,4 A,2 | A,4 A,2 |!<(! G,6-!<)! | %20
w: van- dra hand i|hand i dess|fag- ra|lju- sa|land.|
!>(! G,2 z2!>)!!f!"^a tempo" E,3/2 E,/ | E,3 E, (3:2:2E,2 E, | E,2 C,2 C,3/2 E,/ | %23
w: _ Där- för|må vår sång nu|klin- ga, vä- xa|
!<(! A,4!<)! A,2 | G, A, (G,F,) E,3/2 E,/ | !>!C3 G,!<(! (3:2:2A,2 A,!<)! | %26
w: fram med|lust och fröjd, _ hvar- je|ton sig kraf- tigt|
 !>!A,2 !>!A,2 A,3/2 A,/ |!<(! A,4 C2!<)! | C2 F,2!ff! =F,2 | !>!E,3 !>!F, !>!G, !>!A, | %30
w: svin- ga, hvar- je|ton sig|svin- ga med|ju- bel upp mot|
!<(! (!>!^A,2 B,2) [G,B,]2!<)! | !fermata!A,4 |] %32
w: him- * lens|höjd.|
V:4
!f! C,3/2 B,,/ | !>!A,,3 A,, (3:2:2A,,2 A,, | A,,2 A,,2 z2 | (3(A,,C,)!<(! E, A,2!<)! B,2 | %4
w: Låt vår|häls- nings sång nu|klin- ga,|vä- * xa fram med|
!>(! B, A, (G,F,)!>)! E,3/2 E,/ | !>!A,3 F, (3:2:2C,2 C, | F,2 F,2 z2 |!<(! B,,2 B,,2!<)! B,,2 | %8
w: lust och fröjd, _ hvar- je|ton sig kraf- tigt|svin- ga,|svin- ga mot|
 E,3/2 B,,/ E,2 z2 |!p! =C,2 B,,2 A,,3/2 =G,,/ | (=C,>D,) E,2 z2 | D,2 =C,2!<(! B,,3/2 A,,/!<)! | %12
w: him- lens höjd.|Sån- gens makt oss|e- * nar,|bin- der oss med|
!>(! D,3/2 E,/ =F,2!>)! F,3/2 F,/ | E,4!<(! =F,2!<)! |!>(! E,2 E,2!>)!!<(! E,3/2 E,/!<)! | %15
w: star- ka band, sån- gen|hå- gen|re- nar, då vi|
!mf! _E,3 E, E, E, | =E,4 E,3/2 E,/ |"^dim. e poco rit." =F,4 F,2 | ^F,4 F,2 |!<(! E,6-!<)! | %20
w: van- dra hand i|hand i dess|fag- ra|lju- sa|land.|
!>(! E,2 z2!>)!!f!"^a tempo" C,3/2 B,,/ | A,,3 C, (3(^B,,C,) D, | C,2 A,,2 C,3/2 E,/ | %23
w: _ Där- för|må vår sång _ nu|klin- ga, vä- xa|
!<(! (A,G, F,) E,!<)! D,3/2 B,,/ | E,4 E,3/2 E,/ | !>!C3 G,!<(! (3:2:2A,2 G,!<)! | %26
w: fram _ _ med lust och|fröjd, hvar- je|ton sig kraf- tigt|
 !>!=G,2 !>!F,2 =F,3/2 F,/ |!<(! (E,2 D,2) C,2!<)! | F,2 D,2!ff! B,,2 | %29
w: svin- ga, hvar- je|ton _ sig|svin- ga, svin-|
 E,3/2 [E,,E,]/ !>![E,,E,]3 E, |!<(! E,3/2 [E,,E,]/ [E,,E,]2 E,2!<)! | !fermata![A,,E,]4 |] %32
w: ga med ju- bel|upp mot him- lens|höjd.|

